X:1
T:Kirkpatrick, 87.87 D
T:William James Kirkpatrick, 1887
T:Kirkpatrick, 87.87 D
T:Public Domain
C:William James Kirkpatrick, 1887
Z:Public Domain
%%score ( 1 2 ) 3
L:1/8
M:3/4
K:Eb
V:1 treble 
V:2 treble 
V:3 bass 
V:1
 E2 | [EG][EB] [EB]2 [GB]2 | [Ac][Ae] [Ae]2 [Ac]2 | [GB]3 [Ac] [GB][EG] | [EG]2 [DF]2 E2 | %5
 [EG][EB] [EB]2 [GB]2 | [Ac][Ae] [Ae]2 [Ac]2 | [GB]3 [Ac] [GB][EG] | [DF]2 E2 [EB]2 | %9
 [DB][DB] [EB]2 [EB]2 | [Ec][Ec] [EB]2 [EB]2 | [Ge]3 [Ge] [Fd][Fc] | [Ec]2 [DB]2 [FA]2 | %13
 [EG][EB] [EB]2 [GB]2 | [Ac][Ae] [Ae]2 [Ac]2 | [GB]3 [Ac] [GB][EG] | [DF]2 E2 |] %17
V:2
 E2 | x6 | x6 | x6 | x4 E2 | x6 | x6 | x6 | x2 E2 x2 | x6 | x6 | x6 | x6 | x6 | x6 | x6 | x2 E2 |] %17
V:3
 [E,G,]2 | [E,B,][E,G,] [E,G,]2 [E,E]2 | [A,E][A,C] [A,C]2 [A,E]2 | [E,E]3 [E,E] [E,E][E,B,] | %4
 [B,,B,]2 [B,,B,]2 [E,G,]2 | [E,B,][E,G,] [E,G,]2 [E,E]2 | [A,E][A,C] [A,C]2 [A,E]2 | %7
 [E,E]3 [E,E] [E,E][E,B,] | [B,,A,]2 [E,G,]2 [E,G,]2 | [B,,F,][B,,A,] [E,G,]2 [E,G,]2 | %10
 [A,,A,][C,A,] [E,G,]2 [E,G,]2 | [C,C]3 [C,G,] [F,B,][F,B,] | [F,=A,]2 [B,,B,]2 [B,,B,]2 | %13
 [E,B,][E,G,] [E,G,]2 [E,E]2 | [A,E][A,C] [A,C]2 [A,E]2 | [E,E]3 [E,E] [E,E][E,B,] | %16
 [B,,A,]2 [E,G,]2 |] %17

